X:12
T:Greenwood Tree
S:Flos Headford <flos:madasafish.com> tradtunes 2010-4-7
R:waltz 32
C:presumed trad.
Z:PJHeadford
M:3/4
L:1/8
Q:1/4=140
K:D
=f2 |: f4 e2 | d4 c2 | B3 cdB | A2 F3G | A3 BAF |\ 
A2d2 e2 |1 f3e d2 | e4 =f2 :|2 f3g e2 | d4 c2 |] 
|: B4 c2 | d2c2 B2 | d2c2 B2 | A2 F3G |\ 
A3 BAF | A2d2 e2 | f3e d2 | e4 =f2 | 
f4 e2 | d4 c2 | B3 cdB | A2 F3G |\ 
A3 BAF | A2d2 e2 | f3g e2 |1 d4 dc :|2 d4 |] 

